X:412
T: "Die Nixenbraut"
N: Z1092
O: Europa, Mitteleuropa, Deutschland, Nord - Deutschland
R: Romanze, Ballade, Tod
M: 2/4
L: 1/16
K: G
D2 | G2GFG2A2 | _B2=F2z2A2 | G2D4
D2 | G2GFG2A2 | _B2=F4A2 | G2D4
D2 | _B2BAB2A2 | _Bcd4
D2 | G2GFG2AA | _Bcd4
cB | A2G2A4 | G4z2

